dist/images/service/5.svg

<svg width="74" height="74" viewBox="0 0 74 74" fill="none" xmlns="http://www.w3.org/2000/svg">
<path d="M66.9026 50.4578L50.1685 60.3707L43.7944 56.3433H51.8082C53.0349 56.3433 54.2112 55.8561 55.0786 54.9889C55.946 54.1217 56.4332 52.9455 56.4332 51.719C56.4332 50.4926 55.946 49.3164 55.0786 48.4491C54.2112 47.5819 53.0349 47.0947 51.8082 47.0947H38.0426C36.4593 47.0854 34.8881 47.3705 33.4091 47.9355L22.7044 52.7952V51.719C22.7044 51.3845 22.5715 51.0637 22.3349 50.8272C22.0984 50.5907 21.7775 50.4578 21.443 50.4578H12.193C11.8585 50.4578 11.5376 50.5907 11.3011 50.8272C11.0645 51.0637 10.9316 51.3845 10.9316 51.719V72.7386C10.9316 73.0731 11.0645 73.3939 11.3011 73.6304C11.5376 73.8669 11.8585 73.9998 12.193 73.9998H21.443C21.7775 73.9998 22.0984 73.8669 22.3349 73.6304C22.5715 73.3939 22.7044 73.0731 22.7044 72.7386V71.4774H48.8482C50.5029 71.4802 52.116 70.9592 53.4564 69.9892L71.3341 57.1841C72.0815 56.5399 72.5688 55.6457 72.705 54.6686C72.8411 53.6914 72.6169 52.6981 72.074 51.8742C71.5312 51.0503 70.707 50.4522 69.7553 50.1915C68.8036 49.9309 67.7895 50.0255 66.9026 50.4578ZM20.1816 71.4774H13.4544V52.9802H20.1816V71.4774ZM69.871 55.1746L51.9848 67.9461C51.0718 68.6046 49.974 68.9577 48.8482 68.9551H22.7044V55.5614L34.3762 50.2897C35.5466 49.8422 36.7895 49.6142 38.0426 49.6171H51.8082C52.3658 49.6171 52.9005 49.8385 53.2948 50.2327C53.689 50.6269 53.9105 51.1615 53.9105 51.719C53.9105 52.2765 53.689 52.8111 53.2948 53.2053C52.9005 53.5995 52.3658 53.821 51.8082 53.821H39.4385C39.1647 53.8206 38.8983 53.9094 38.6794 54.0737C38.4605 54.2381 38.3011 54.4692 38.2251 54.7322C38.1491 54.9952 38.1608 55.2757 38.2583 55.5314C38.3559 55.7872 38.534 56.0043 38.7657 56.1499L49.4705 62.8762C49.6691 62.9981 49.8976 63.0627 50.1306 63.0627C50.3637 63.0627 50.5922 62.9981 50.7907 62.8762L68.1976 52.543C68.5385 52.3433 68.9431 52.2823 69.3278 52.3727C69.7124 52.4632 70.0475 52.698 70.2636 53.0287C70.4798 53.3594 70.5605 53.7606 70.4889 54.1491C70.4174 54.5376 70.1991 54.8837 69.8794 55.1158L69.871 55.1746Z" fill="#0038FF"/>
<path d="M72.7386 40.3686H69.7955C69.583 32.64 66.6144 25.2419 61.4255 19.5095C56.2366 13.7771 49.1692 10.0881 41.4989 9.10831C42.2022 8.32194 42.663 7.34883 42.8254 6.30644C42.9878 5.26404 42.8451 4.19691 42.4143 3.23387C41.9835 2.27082 41.2831 1.45302 40.3978 0.879186C39.5124 0.305348 38.4798 0 37.4247 0C36.3695 0 35.3369 0.305348 34.4516 0.879186C33.5662 1.45302 32.8658 2.27082 32.435 3.23387C32.0043 4.19691 31.8615 5.26404 32.0239 6.30644C32.1863 7.34883 32.6471 8.32194 33.3505 9.10831C25.6779 10.0846 18.6075 13.7723 13.4166 19.5052C8.22568 25.2381 5.2565 32.6382 5.04545 40.3686H1.26136C0.926829 40.3686 0.605996 40.5015 0.369445 40.738C0.132893 40.9745 0 41.2953 0 41.6298C0 41.9643 0.132893 42.2851 0.369445 42.5216C0.605996 42.7581 0.926829 42.891 1.26136 42.891H72.7386C73.0732 42.891 73.394 42.7581 73.6306 42.5216C73.8671 42.2851 74 41.9643 74 41.6298C74 41.2953 73.8671 40.9745 73.6306 40.738C73.394 40.5015 73.0732 40.3686 72.7386 40.3686ZM37.4205 2.53338C38.0026 2.53338 38.5716 2.70597 39.0556 3.02933C39.5396 3.35268 39.9168 3.81227 40.1396 4.34999C40.3624 4.8877 40.4206 5.47939 40.3071 6.05022C40.1935 6.62106 39.9132 7.14541 39.5016 7.55696C39.09 7.96851 38.5656 8.24877 37.9946 8.36232C37.4237 8.47587 36.8319 8.41759 36.2941 8.19486C35.7563 7.97213 35.2967 7.59495 34.9733 7.11102C34.6499 6.62709 34.4773 6.05814 34.4773 5.47612C34.4773 4.69566 34.7874 3.94716 35.3393 3.39529C35.8913 2.84342 36.6399 2.53338 37.4205 2.53338ZM37.4205 11.3616C45.1923 11.3649 52.657 14.396 58.2304 19.8116C63.8039 25.2273 67.0474 32.6012 67.2727 40.3686H7.56818C7.79348 32.6012 11.037 25.2273 16.6105 19.8116C22.1839 14.396 29.6486 11.3649 37.4205 11.3616Z" fill="#0038FF"/>
<path d="M30.6439 17.34C27.1788 18.321 23.9693 20.0456 21.239 22.3936C18.5086 24.7416 16.3232 27.6566 14.8348 30.9354C14.7511 31.0882 14.6999 31.2567 14.6846 31.4302C14.6692 31.6037 14.69 31.7785 14.7456 31.9436C14.8012 32.1087 14.8904 32.2605 15.0076 32.3895C15.1247 32.5184 15.2673 32.6216 15.4264 32.6927C15.5855 32.7638 15.7576 32.8011 15.9318 32.8024C16.106 32.8037 16.2786 32.7689 16.4387 32.7001C16.5988 32.6314 16.7429 32.5303 16.862 32.4031C16.981 32.2759 17.0724 32.1254 17.1305 31.9612C18.4704 29.0198 20.4351 26.4055 22.8879 24.3001C25.3406 22.1948 28.2226 20.6488 31.3334 19.7698C31.493 19.7245 31.6421 19.6483 31.7722 19.5454C31.9023 19.4425 32.0108 19.315 32.0916 19.1702C32.1725 19.0254 32.224 18.8661 32.2432 18.7013C32.2624 18.5366 32.249 18.3697 32.2037 18.2102C32.1585 18.0506 32.0822 17.9015 31.9793 17.7715C31.8764 17.6414 31.7489 17.5328 31.6041 17.452C31.4592 17.3712 31.2999 17.3197 31.1351 17.3005C30.9704 17.2813 30.8034 17.2947 30.6439 17.34Z" fill="#0038FF"/>
</svg>

<svg width="74" height="74" fill="none" xmlns="http://www.w3.org/2000/svg"><path d="M66.903 50.458L50.168 60.37l-6.374-4.028h8.014a4.625 4.625 0 100-9.248H38.043a12.774 12.774 0 00-4.634.84l-10.705 4.86V51.72a1.26 1.26 0 00-1.261-1.261h-9.25a1.261 1.261 0 00-1.261 1.261v21.02A1.26 1.26 0 0012.193 74h9.25a1.261 1.261 0 001.261-1.26v-1.262h26.144a7.838 7.838 0 004.608-1.488l17.878-12.805a4.061 4.061 0 00-4.431-6.726zm-46.721 21.02h-6.728V52.98h6.728v18.497zM69.87 55.174L51.985 67.946a5.34 5.34 0 01-3.137 1.01H22.704V55.56l11.672-5.271a10.2 10.2 0 013.667-.673h13.765a2.103 2.103 0 110 4.204h-12.37a1.262 1.262 0 00-.672 2.329l10.705 6.726a1.262 1.262 0 001.32 0l17.407-10.333a1.54 1.54 0 011.681 2.573l-.008.059zm2.869-14.805h-2.944A32.41 32.41 0 0041.5 9.109a5.465 5.465 0 10-8.149 0 32.41 32.41 0 00-28.305 31.26H1.261a1.262 1.262 0 000 2.522H72.74a1.262 1.262 0 000-2.522zM37.42 2.533a2.943 2.943 0 110 5.887 2.943 2.943 0 010-5.887zm0 8.829a29.88 29.88 0 0129.853 29.007H7.568a29.87 29.87 0 019.042-20.557 29.88 29.88 0 0120.81-8.45z" fill="#0038FF"/><path d="M30.644 17.34a24.774 24.774 0 00-15.81 13.595 1.26 1.26 0 102.297 1.026A22.255 22.255 0 0131.333 19.77a1.263 1.263 0 10-.69-2.43z" fill="#0038FF"/></svg>
